X:9
T:Parson Hogg - Snow
C:Taken down by S.B.G. from Edmund Snow’s singing  Nov. 1888
%%VWML:SBG-1-1-33-0
F:http://www.vwml.org/record/SBG/1/1/33
Z:Original Sibleius Transcription by Martin and Shan Graebe
L:1/8
M:6/8
I:linebreak $
K:A
z2 z z2 A | A2 c E2 F | A2 c A2 E | A2 A (BA) B | c3 A2 E |$ A2 c G2 B | F2 A E2 E | F2 E F2 E | 
A3 A2 E | C2 F E2 A | G2 B E2 E |$ (AG) A B2 B | c3 A2 A | d2 B c2 A | B2 G A2 E | CD E EF G | 
A3 A2  |] 
T:Parson Hogg - Whitfield
T:From H. Whitfeld, Brushmaker, Market Alley, Plymouth, as sung by his grandfather, circ. 1830.
L:1/16
M:6/8
I:linebreak $
K:Bb
F2 | F2>B2 B4 A4 | G3 c c4 B4 | d4 B4 B3 F | D6 F2 F2 | F3 B B4 A4 | G3 c c4 B4 |$ d4 B4 B3 F | 
w: ||||||||
D6 F4 G2 | F4 G3 G E4 | G4 F2 E2 D4 | F4 E2 D2 C4 | B,4 D6 F2 | F4 G3 G E4 |$ B4 A2 G2 F4 | 
w: |||||||
B4 d3 c e4 | A2 c6 B2 z2 |: F3 B B6 z2 | d3 B B6 F2 |$ D6 F4 z2 | F4 G3 G G2 E4 | B4 A2 G2 F4 | 
w: ||Tal- ly ho!|Tal- ly ho The|hounds Sir!|He thought it no crime|at an- y time|
B4 d3 c e4 | A2 c6 B2 z2 :| 
w: To Tal- ly ho|the hounds, Sir.|



